X: 33
M: C|
L: 1/8
K: Bb
{c}B>AB>d g>fd>B | {d}c>=Bc>d c2F2 |
{c}B>AB>d c>ec>A | (3BAB d>B G2F>E |\
|: f2 |\
{a}g>^fg>a b2b2 | (3BAB d>B G2F2 |\
{a}g>^fg>a b2b2 | (3BAB d>B G2F>E |\
(3DFB (3dcB (3Agf (3edc | B2d2 B2 H:|

